svg/list_box.svg

<svg xmlns="http://www.w3.org/2000/svg" viewBox="0 0 24 24"><path d="M19 3H5c-1.1 0-2 .9-2 2v14c0 1.1.9 2 2 2h14c1.1 0 2-.9 2-2V5c0-1.1-.9-2-2-2M7 7h2v2H7zm0 4h2v2H7zm0 4h2v2H7zm10 2h-6v-2h6zm0-4h-6v-2h6zm0-4h-6V7h6z"/></svg>

<svg xmlns="http://www.w3.org/2000/svg" id="mdi-list-box" viewBox="0 0 24 24"><path d="M19 3H5C3.9 3 3 3.9 3 5V19C3 20.1 3.9 21 5 21H19C20.1 21 21 20.1 21 19V5C21 3.9 20.1 3 19 3M7 7H9V9H7V7M7 11H9V13H7V11M7 15H9V17H7V15M17 17H11V15H17V17M17 13H11V11H17V13M17 9H11V7H17V9Z" /></svg>
